assets/symbols/mulberry/chocolate_bar.svg

<svg height="850.394" viewBox="0 0 850.394 850.394" width="850.394" xmlns="http://www.w3.org/2000/svg"><g fill="#9e5b16"><path d="m443.04 285.31v61.89l-33.13 9.46v-74.58l18.38-15.53zm-165.65-3.23v112.46l-36.72 10.49v-307.33c0-6.35 2.92-12.02 7.49-15.73l.06.07 29.17 33.73v123.39l-29.29 22.03z"/><path d="m575.55 244.39v-1.88l27.86 20.5-27.86 21.59v-2.95h-132.51v3.66l-14.75-18.76 14.75-22.16z"/><path d="m575.55 242.51v1.88h-132.51v-129.05h132.51v3.75z"/><path d="m612.04 97.7v202.61h-.021c-1.579.49-4.279.51-6.02.46l.05-.16-30.5 8.72v-24.73l27.86-21.59-27.86-20.5v-123.42l29.05-33.57 2.181-1.45c3.26 3.6 5.26 8.38 5.26 13.63zm-334.65 141.46v-123.39h132.52v129.06h-132.52z"/><path d="m407.86 244.91 20.43 21.64-18.38 15.53h-132.52l-29.29-20.89 29.29-22.03v5.67h130.47z"/><path d="m591.78 77.44c5.939 0 11.29 2.56 15 6.63l-2.181 1.45-29.05 33.57v-3.75h-132.508v129.05l-14.75 22.16-20.43-21.64v-.08h2.05v-129.06l12.33-38.33zm-169.54 0-12.33 38.33h-132.52l-29.17-33.73-.06-.07c3.49-2.83 7.93-4.53 12.77-4.53zm-12.33 204.64v74.58l-132.52 37.88v-112.46zm165.64 2.52v24.73l-132.51 37.87v-65.55h132.51z"/></g><path d="m612.04 300.31v477.59h-371.37v-372.87s246.44-6.09 295.73 105.43l69.6-209.69c1.74.05 4.44.03 6.02-.46z" fill="#a800d4"/><path d="m443.04 347.2 132.51-37.87 30.5-8.72-.05.16-69.6 209.69c-49.29-111.52-295.73-105.43-295.73-105.43l36.72-10.49 132.52-37.88z" fill="#f6cc4b"/><g fill="none" stroke="#000" stroke-width="21.443"><path d="m409.91 115.77v129.06h-132.52v-129.06zm165.64 126.74v1.88h-132.51v-129.05h132.51v3.75zm-298.16 152.05v-112.48h132.52v74.65m33.13-9.45v-65.63h132.51v27.82"/><path d="m606 300.77.05-.16-30.5 8.72-132.51 37.87-33.13 9.46-132.52 37.88-36.72 10.49s246.44-6.09 295.73 105.43z"/><path d="m612.04 300.31v477.59h-371.37v-680.2c0-6.35 2.92-12.02 7.49-15.73 3.49-2.83 7.93-4.53 12.77-4.53h330.85c5.939 0 11.29 2.56 15 6.63 3.26 3.6 5.26 8.38 5.26 13.63zm-363.82-218.27 29.17 33.73"/><path d="m248.1 261.19 29.29-22.03.78-.59m326.43-153.05-29.05 33.57-.13.15m-153.18-41.8-12.33 38.33m21.23-33.22 15.38 32.79m-18.23 151.21 14.75-22.16m-14.75 22.16-20.43-21.64m-159.76 16.28 29.29 20.89m326.02-19.07-27.86 21.59-1.32 1.02m29.18-22.61-27.86-20.5-.53-.39m-165.11 39.96 18.38-15.53 14.75 18.76"/></g><path d="m0 0h850.394v850.394h-850.394z" fill="none"/></svg>

<svg xmlns="http://www.w3.org/2000/svg" width="850.394" height="850.394" viewBox="0 0 850.394 850.394" overflow="visible"><path fill="#9e5b16" d="M443.04 285.31v61.89l-33.13 9.46v-74.58l18.38-15.53zM277.39 282.08v112.46l-36.72 10.49V97.7c0-6.35 2.92-12.02 7.49-15.73l.06.07 29.17 33.73v123.39l-29.29 22.03 29.29 20.89z"/><path fill="#9e5b16" d="M575.55 244.39v-1.88l27.86 20.5-27.86 21.59v-2.95H443.04v3.66l-14.75-18.76 14.75-22.16z"/><path fill="#9e5b16" d="M575.55 242.51v1.88H443.04V115.34h132.51v3.75z"/><path d="M612.04 97.7v202.61h-.021c-1.579.49-4.279.51-6.02.46l.05-.16-30.5 8.72V284.6l27.86-21.59-27.86-20.5V119.09l29.05-33.57 2.181-1.45c3.26 3.6 5.26 8.38 5.26 13.63zM277.39 239.16V115.77h132.52v129.06H277.39z" fill="#9e5b16"/><path fill="#9e5b16" d="M407.86 244.91l20.43 21.64-18.38 15.53H277.39l-29.29-20.89 29.29-22.03v5.67h130.47z"/><path d="M591.78 77.44c5.939 0 11.29 2.56 15 6.63l-2.181 1.45-29.05 33.57v-3.75H443.041v129.05l-14.75 22.16-20.43-21.64v-.08h2.05V115.77l12.33-38.33H591.78zM422.24 77.44l-12.33 38.33H277.39l-29.17-33.73-.06-.07c3.49-2.83 7.93-4.53 12.77-4.53h161.31zM409.91 282.08v74.58l-132.52 37.88V282.08zM575.55 284.6v24.73L443.04 347.2v-65.55h132.51z" fill="#9e5b16"/><path d="M612.04 300.31V777.9H240.67V405.03s246.44-6.09 295.73 105.43L606 300.77c1.74.05 4.44.03 6.02-.46h.02z" fill="#a800d4"/><path d="M443.04 347.2l132.51-37.87 30.5-8.72-.05.16-69.6 209.69c-49.29-111.52-295.73-105.43-295.73-105.43l36.72-10.49 132.52-37.88 33.13-9.46z" fill="#f6cc4b"/><g fill="none" stroke="#000" stroke-width="21.443"><path d="M409.91 115.77v129.06H277.39V115.77zM575.55 242.51v1.88H443.04V115.34h132.51v3.75zM277.39 394.56V282.08h132.52V356.73M443.04 347.28v-65.63h132.51v27.82"/><path d="M606 300.77l.05-.16-30.5 8.72-132.51 37.87-33.13 9.46-132.52 37.88-36.72 10.49s246.44-6.09 295.73 105.43L606 300.77z"/><path d="M612.04 300.31V777.9H240.67V97.7c0-6.35 2.92-12.02 7.49-15.73 3.49-2.83 7.93-4.53 12.77-4.53h330.85c5.939 0 11.29 2.56 15 6.63 3.26 3.6 5.26 8.38 5.26 13.63v202.61zM248.22 82.04l29.17 33.73"/><path d="M248.1 261.19l29.29-22.03.78-.59M604.6 85.52l-29.05 33.57-.13.15M422.24 77.44l-12.33 38.33M431.14 82.55l15.38 32.79M428.29 266.55l14.75-22.16M428.29 266.55l-20.43-21.64M248.1 261.19l29.29 20.89M603.41 263.01l-27.86 21.59-1.32 1.02M603.41 263.01l-27.86-20.5-.53-.39M409.91 282.08l18.38-15.53 14.75 18.76"/></g><path fill="none" d="M0 0h850.394v850.394H0z"/></svg>
